X: 205
T:Veux-tu te marier
M:6/8
L:1/8
Q:100
C:trad
R:Branle
O:France
A:Gascogne
K:G
B2 A|G3 DEF|G2G:||:G2A B2BB2B|c3:|
|BcB|A2A FGA|B2 G BcB|A2A ABA|G3||
W:
W:Te veux-tu te marirer Rosette
W:Rosette veux-tu te marier
W:Digodon dondon la deridto
W:Digodon don lala derida
W:
W: From "Falaleiro" http://home.t-online.de/home/pheld/homepage.htm
